_inc/systems/logos/msx.svg

<?xml version="1.0" encoding="utf-8"?>
<svg version="1.1" viewBox="0 0 3839 1299.2" xmlns="http://www.w3.org/2000/svg">
  <path d="M 2916.1 0 L 3158.313 340.972 L 3400.5 0 L 3810.5 0 L 3363.324 629.574 L 3839 1299.2 L 3428.9 1299.2 L 3158.305 918.219 L 2887.7 1299.2 L 2477.7 1299.2 L 2953.308 629.597 L 2743.571 334.3 L 1899.2 334.3 C 1899.2 306.425 1899.2 278.55 1899.2 334.3 C 1800.5 334.3 1800.5 482.4 1899.2 482.4 L 2192.7 482.4 C 2737.167 482.4 2737.2 1299 2192.8 1299.1 L 1633.073 1299.1 L 1633.1 1299.2 L 1286.6 1299.2 L 1126.9 714 L 967.3 1299.2 L 665.7 1299.2 L 506.2 714 L 346.5 1299.2 L 0 1299.2 L 354.4 0 L 657.9 0 L 816.5 581.5 L 975.1 0 L 1278.7 0 L 1541.881 964.8 L 2192.7 964.8 C 2291.4 964.8 2291.4 816.7 2192.7 816.7 L 1899.2 816.7 C 1354.7 816.7 1354.7 0 1899.2 0 Z" class="st0" style="fill: rgb(255, 255, 255);"/>
</svg>

<svg xmlns="http://www.w3.org/2000/svg" viewBox="0 0 3839 1299.2"><path d="m2916.1 0 242.21 340.97L3400.5 0h410l-447.18 629.57L3839 1299.2h-410.1l-270.6-380.98-270.6 380.98h-410l475.6-669.6-209.73-295.3H1899.2c0-27.87 0-55.75 0 0-98.7 0-98.7 148.1 0 148.1h293.5c544.47 0 544.5 816.6.1 816.7h-559.73l.03.1h-346.5L1126.9 714l-159.6 585.2H665.7L506.2 714l-159.7 585.2H0L354.4 0h303.5l158.6 581.5L975.1 0h303.6l263.18 964.8h650.82c98.7 0 98.7-148.1 0-148.1h-293.5c-544.5 0-544.5-816.7 0-816.7Z" class="st0" style="fill:#fff"/></svg>
